X:1
T:Title
%%score ( 1 2 ) 3
L:1/8
Q:1/4=90
M:3/4
K:Eb
V:1 treble nm="Grand Piano, Soprano"
V:2 treble 
V:3 bass nm="Choir Pad, Not Tonight (Bilhorn)"
V:1
 E>[EF] [EG]3 [E_G] | [EG]>[Ec] [EB]3 E | E>[EF] [EG]3 [B,E] | [DF]>[DG] [DF]3 [DF] | %4
w: By~Peter~Philip~Bilhorn~ * * *||||
 [DF]>[EG] [DA]3 [DF] | [EG]>[FA] [GB]3 [EG] | [GB]>[Ge] [Fd]3 [Fc] | [FB]>[E=A] [DB]4 | z2 e4- | %9
w: |||||
 e2 z2 c2- | c4 z2 | d6 | z6 | z2 z2 e2- | e4 z2 | f4 z2 | [Ad]>[_Ge] [=GB]4 | %17
w: ||||||||
 [EG]2 [DA]>[DF] [B,E]2- | [B,E]6 |] %19
w: ||
V:2
 x6 | x6 | x6 | x6 | x6 | x6 | x6 | x6 | B>B z z/ G/ A>A | G>B =A>B z z/ E/ | E>E E2 c>_d | %11
 z2 A>A A>[Ac] | [GB]>[FA] [EG]4- | [EG]2 B>B z z/ G/ | A>A G>e d>e | z z/ A/ A>A [Ac]>[Ac] | x6 | %17
 x6 | x6 |] %19
V:3
 [E,G,]>[E,A,] [E,B,]3 [E,=A,] | [E,B,]>[E,A,] [E,G,]3 [E,G,] | [C,G,]>[C,=A,] [B,,B,]3 [B,,G,] | %3
 [B,,A,]>[B,,B,] [B,,B,]3 [B,,B,] | [B,,A,]>[B,,G,] [B,,F,]3 [B,,B,] | %5
 [E,B,]>[E,B,] [E,E]3 [E,B,] | [E,E]>[E,B,] [F,B,]3 [F,E] | [F,D]>[F,C] [B,,B,]4 | %8
 z2 z z/ [E,B,]/ [E,C]>[E,C] | [E,B,]2 z2 z z/ [A,,A,]/ | [A,,A,]>[A,,A,] [A,,A,]2 z2 | %11
 z2 [B,,B,]>[B,,B,] [B,,B,]>[B,,B,] | [B,,B,]>[B,,B,] [E,B,]4- | [E,B,]2 z2 z z/ [E,B,]/ | %14
 [E,C]>[E,C] [E,B,]2 z2 | z z/ [A,C]/ [A,C]>[A,C] [A,E]>[A,E] | [A,D]>[=A,C] B,4 | %17
 B,2 [B,,B,]>[B,,A,] [E,G,]2- | [E,G,]6 |] %19

